X:1
T:House of the rising sun
C:Trad/Arr as Jig - The Animals
S:Northumbrian Minstrelsy
M:6/8
K:Gmaj
Eeg bge | Gdg bed | Aea ^c'ae | ceg c'ge | 
 [1Eeg bge | Gdg bed | B^df bf^d | B^df bf^d:| 
 [2eeg bge | B^df | eeg bge | eeg bge|
